!!!!SEGMENT: pl-kk--kk-i-382--012-002_anonim--nro-4-gloria.krn
!!!cenid: 18xx:1474
!!!COM: Anonim
!!!COM-rismid: pe30004985
!!!CDT:
!!!CNT:
!!!OPR: Nro 4
!!!OTL: Gloria
!!!OMV: 003
!!!PDT:
!!!AGN: Sacred
!!!SMS-siglum: PL-Kk
!!!SMS-shelfmark: Kk.I.382
!!!SMS-shelfwork: 004-003 M
!!!SMS-variant:
!!!SMS-altvar:
!!!NIFC-rismid: 1001139095
!!!URL-scan: http://repozytorium.nifc.pl/skany/pl-kk-nut--i-382
!!!ONB-nifc: UWAGA: obsada: S (T 1), A (B 1), T 2, B 2; S (T 1): skan 0012; A (B 1): skan 0156-0157; T 2: skan 0083-0084; B 2: skan 0229
**kern	**text	**dynam	**kern	**text	**kern	**text	**kern	**text
*part4	*part4	*part4	*part3	*part3	*part2	*part2	*part1	*part1
*staff4	*staff4	*	*staff3	*staff3	*staff2	*staff2	*staff1	*staff1
*Ibass	*	*	*Itenor	*	*Ialto	*	*Itenor	*
*I"Basso II	*	*	*I"Tenore II	*	*I"Alto vel Basso I	*	*I"Soprano vel Tenore I.	*
*I'B 2	*	*	*I'T 2	*	*I'A (B 1)	*	*I'S (T 1)	*
*clefF4	*	*	*clefC4	*	*clefC3	*	*clefC1	*
*k[]	*	*	*k[]	*	*k[]	*	*k[]	*
*C:	*	*	*C:	*	*C:	*	*C:	*
*M4/4	*	*	*M4/4	*	*M4/4	*	*M4/4	*
*met(C.)	*	*	*met(C.)	*	*met(C.)	*	*met(C.)	*
=1	=1	=1	=1	=1	=1	=1	=1	=1
*2\right	*	*	*2\right	*	*2\right	*	*2\right	*
!LO:TX:a:t=in C.	!	!	!LO:TX:a:t=P:problem:all\right:global	!	!LO:TX:a:t=P:problem:all\right:global	!	!LO:TX:a:t=P:problem:all\right:global	!
!LO:TX:a:i:t=Gloria	!	!	!LO:TX:a:i:t=Gloria	!	!LO:TX:a:i:t=Gloria.	!	!LO:TX:a:i:t=Gloria	!
!LO:TX:a:t=P:problem: tytuł na pięciolinii przed kluczem	!	!	!LO:TX:a:t=P:problem: tytuł na pięciolinii przed kluczem	!	!LO:TX:a:t=P:problem: tytuł na pięciolinii przed kluczem	!	!LO:TX:a:t=P:problem: tytuł na pięciolinii przed kluczem	!
(>4c\	Et	.	2.c\	Et	2.g\	Et	2.ee\	Et
4G\)	.	.	.	.	.	.	.	.
(>4E\	in	.	.	.	.	.	.	.
4C\)	.	.	4c\	in	4g\	in	4ee\	in
=2	=2	=2	=2	=2	=2	=2	=2	=2
(>4G\	ter-	.	2B\	ter-	2g\	ter-	2dd\	ter-
4d\)	.	.	.	.	.	.	.	.
(>4B\	-ra	.	2B\	-ra	2g\	-ra	2dd\	-ra
4G\)	.	.	.	.	.	.	.	.
=3	=3	=3	=3	=3	=3	=3	=3	=3
(>4G\	pax	.	2d\	pax	2g\	pax	2ff\	pax
4B\)	.	.	.	.	.	.	.	.
(>4d\	ho-	.	2d\	ho-	2g\	ho-	2ff\	ho-
4B\)	.	.	.	.	.	.	.	.
=4	=4	=4	=4	=4	=4	=4	=4	=4
4c\	-mi-	.	4c\	-mi-	4g\	-mi-	4ee\	-mi-
4C/	-ni-	.	4c\	-ni-	4g\	-ni-	4ee\	-ni-
2C/	-bus	.	2c\	-bus	2g\	-bus	2ee\	-bus
=5	=5	=5	=5	=5	=5	=5	=5	=5
4G\	bo-	.	4c\	bo-	4g\	bo-	4ee\	bo-
!LO:SIC:l:v:s=-nae	!	!	!LO:SIC:l:v:s=-nae	!	!LO:SIC:l:v:s=-nae	!	!LO:SIC:l:v:s=-nae	!
4G\	-ne	.	4B\	-ne	4f\	-ne	4dd\	-ne
4G\	vo-	.	4B\	vo-	4f\	vo-	4dd\	vo-
4F#X\	-lun-	.	4A\	-lun-	4e\	-lun-	4cc\	-lun-
!	!	!	!	!	!LO:LB:g=original	!	!LO:LB:g=original	!
=6	=6	=6	=6	=6	=6	=6	=6	=6
4G\	-ta-	.	4G/	-ta-	4e\	-ta-	4cc\	-ta-
4G\	-tis	.	4G/	-tis	4d\	-tis	4b\	-tis
!LO:LB:g=original	!	!	!	!	!	!	!	!
2G\	lau-	.	2G/	lau-	(>4d\	lau-	(>4b\	lau-
.	.	.	.	.	4e\)	.	4cc\)	.
!	!	!	!LO:LB:g=original	!	!	!	!	!
=7	=7	=7	=7	=7	=7	=7	=7	=7
2G\	-da-	.	2G/	-da-	2f\	-da-	2dd\	-da-
2G\	-mus	.	2G/	-mus	2d\	-mus	2b\	-mus
=8	=8	=8	=8	=8	=8	=8	=8	=8
2G\	te	.	2G/	te	2e\	te	2cc\	te
4G\	be-	.	4B\	be-	4d\	be-	4b\	be-
4G\	-ne-	.	4c\	-ne-	4e\	-ne-	4cc\	-ne-
=9	=9	=9	=9	=9	=9	=9	=9	=9
2G\	-di-	.	2d\	-di-	2f\	-di-	2dd\	-di-
4G\	-ci-	.	4B\	-ci-	4d\	-ci-	4b\	-ci-
4G\	-mus	.	4B\	-mus	4d\	-mus	4b\	-mus
=10	=10	=10	=10	=10	=10	=10	=10	=10
2c\	te	.	2c\	te	2e\	te	2cc\	te
4c\	a-	.	4c\	a-	4g\	a-	4ee\	a-
4C/	-do-	.	4c\	-do-	4g\	-do-	4ee\	-do-
=11	=11	=11	=11	=11	=11	=11	=11	=11
2C/	-ra-	.	2c\	ra-	2g\	-ra-	2ee\	-ra-
(>4F\	-mus	.	(>4B\	-mus	(>4f\	-mus	(>4dd\	-mus
4F#X\)	.	.	4A\)	.	4e\)	.	4cc\)	.
!	!	!	!	!	!LO:LB:g=original	!	!LO:LB:g=original	!
=12	=12	=12	=12	=12	=12	=12	=12	=12
2G\	te	.	2G/	te	2d\	te	2b\	te
2G\	glo-	.	2B\	glo-	2f\	glo-	2dd\	glo-
=13	=13	=13	=13	=13	=13	=13	=13	=13
(>4E\	-ri-	.	(>4G\	-ri-	(>4e\	-ri-	(>4cc\	-ri-
4D\)	.	.	4B\)	.	4f\)	.	4dd\)	.
(>4C/	-fi-	.	(>4c\	-fi-	(>4g\	-fi-	(>4ee\	-fi-
4F\)	.	.	4B\)	.	4f\)	.	4dd\)	.
!LO:LB:g=original	!	!	!LO:LB:g=original	!	!	!	!	!
=14	=14	=14	=14	=14	=14	=14	=14	=14
2G\	-ca-	.	2G/	-ca-	2e\	-ca-	2cc\	-ca-
2GG/	-mus	.	2G/	-mus	2d\	-mus	2b\	-mus
=15	=15	=15	=15	=15	=15	=15	=15	=15
1C	te	.	2.G/	te	2.e\	te,	2.cc\	te,
.	.	.	4r	.	4r	.	4r	.
!LO:TX:a:t=P:problem: druga kreska taktowa dopisana ołówkiem	!	!	!	!	!	!	!	!
=16	=16	=16	=16	=16	=16	=16	=16||	=16||
(<4AA/	gra-	.	2A\	gra-	2e\	gra-	2cc\	gra-
4BB/)	.	.	.	.	.	.	.	.
4C/	-ti-	.	4A\	-ti-	4e\	-ti-	4cc\	-ti-
4D/	-as	.	4A\	-as	4e\	-as	4cc\	-as
=17	=17	=17	=17	=17	=17	=17	=17	=17
(>4E\	a-	.	2G#X/	a-	2e\	a-	2b\	a-
4F#X\)	.	.	.	.	.	.	.	.
4G#X\	-gi-	.	4G#/	-gi-	4e\	-gi-	4b\	-gi-
4E\	-mus	.	4G#/	-mus	4e\	-mus	4b\	-mus
=18	=18	=18	=18	=18	=18	=18	=18	=18
(>4A\	ti-	.	1A	ti-	1e	ti-	1cc	ti-
4Fn\	.	.	.	.	.	.	.	.
4E\	.	.	.	.	.	.	.	.
4D#X\)	.	.	.	.	.	.	.	.
!	!	!	!	!	!LO:LB:g=original	!	!LO:LB:g=original	!
=19	=19	=19	=19	=19	=19	=19	=19	=19
2E\	-bi	.	2G#X/	-bi	2e\	-bi	2b\	-bi
4G#X\	pro-	.	4G#/	pro-	4e\	pro-	4b\	pro-
4E\	-pter	.	4G#/	-pter	4e\	-pter	4b\	-pter
=20	=20	=20	=20	=20	=20	=20	=20	=20
(>4A\	ma-	.	2A\	ma-	2e\	ma-	2cc\	ma-
4E\)	.	.	.	.	.	.	.	.
(<4C/	-gnam	.	2A\	-gnam	2e\	-gnam	2cc\	-gnam
4AA/)	.	.	.	.	.	.	.	.
!LO:LB:g=original	!	!	!LO:LB:g=original	!	!	!	!	!
=21	=21	=21	=21	=21	=21	=21	=21	=21
2F\	glo-	.	2G#X/	glo-	2e\	glo-	2b\	glo-
4F\	-ri-	.	4G#/	-ri-	4d\	-ri-	4b\	-ri-
4D\	-am	.	4G#/	-am	4f\	-am	4b\	-am
=22	=22	=22	=22	=22	=22	=22	=22	=22
1E	tu-	.	2A/	tu-	1e	tu-	(>2cc\	tu-
.	.	.	2G#X/	.	.	.	2b\)	.
=23	=23	=23	=23	=23	=23	=23	=23	=23
1AA	-am	.	2.A\	-am	2.e\	-am,	2.cc\	-am
.	.	.	4r	.	4r	.	4r	.
=24	=24	=24	=24	=24	=24	=24	=24	=24
!	!	!LO:DY:b:rj:t=p.	!	!	!	!	!	!
!LO:TX:b:t=P:problem:oznaczenie dynamiczne na pięciolinii przed nutą	!	!	!	!	!	!	!	!
2G\	Do-	p	2Gn/	Do-	2e\	Do-	2cc\	Do-
4G\	-mi-	.	4G/	-mi-	4d\	-mi-	4b\	-mi-
4G\	-ne	.	4G/	-ne	4d\	-ne	4b\	-ne
=25	=25	=25	=25	=25	=25	=25	=25	=25
2B\	De-	.	2B\	De-	2f\	De-	2dd\	De-
2G\	-us	.	2G/	-us	2e\	-us	2cc\	-us
!	!	!	!	!	!LO:LB:g=original	!	!LO:LB:g=original	!
=26	=26	=26	=26	=26	=26	=26	=26	=26
2G\	rex	.	2G/	rex	(>4e\	rex	(>4cc\	rex
.	.	.	.	.	4g\)	.	4ee\)	.
!LO:SIC:l:v:s=coe-	!	!	!LO:SIC:l:v:s=coe-	!	!LO:SIC:l:v:s=coe-	!	!LO:SIC:l:v:s=coe-	!
2G\	ce-	.	2G/	ce-	(>4f\	ce-	(>4dd\	ce-
.	.	.	.	.	4e\)	.	4cc\)	.
=27	=27	=27	=27	=27	=27	=27	=27	=27
4G\	-les-	.	4G/	-les-	4d\	-les-	4b\	-les-
4G\	-tis	.	4G/	-tis	4d\	-tis	4b\	-tis
4G\	De-	.	4G/	De-	4d\	De-	4b\	De-
4G\	-us	.	4G/	-us	4e\	-us	4cc\	-us
!LO:LB:g=original	!	!	!LO:LB:g=original	!	!	!	!	!
=28	=28	=28	=28	=28	=28	=28	=28	=28
2B\	pa-	.	2B\	pa-	2f\	pa-	2dd\	pa-
4G\	-ter	.	4G/	-ter	4e\	-ter	4cc\	-ter
4G\	om-	.	4G/	om-	4f\	om-	4dd\	om-
=29	=29	=29	=29	=29	=29	=29	=29	=29
2G\	-ni-	.	2G/	-ni-	2e\	-ni-	2cc\	-ni-
2G\	-po-	.	2G/	-po-	2d\	-po-	2b\	-po-
=30	=30	=30	=30	=30	=30	=30	=30	=30
1G	-tens	.	1G	-tens	1e	-tens	1cc	-tens
=31	=31	=31	=31	=31	=31	=31	=31	=31
!LO:TX:b:t=P:problem:oznaczenie dynamiczne na pięciolinii przed nutą	!	!LO:DY:b:rj	!	!	!	!	!	!
(<4C/	Do-	f	(>4c\	Do-	(>4e\	Do-	(>4cc\	Do-
4D/)	.	.	4B\)	.	4f\)	.	4b\)	.
4E\	-mi-	.	4c\	-mi-	4g\	-mi-	4cc\	-mi-
4C\	-ne	.	4c\	-ne	4e\	-ne	4cc\	-ne
!	!	!	!	!	!LO:LB:g=original	!	!LO:LB:g=original	!
=32	=32	=32	=32	=32	=32	=32	=32	=32
(>4G\	fi-	.	2B\	fi-	2d\	fi-	2b\	fi-
4A\)	.	.	.	.	.	.	.	.
(>4B\	-li	.	2B\	-li	2d\	-li	2b\	li
4A\)	.	.	.	.	.	.	.	.
=33	=33	=33	=33	=33	=33	=33	=33	=33
2G\	u-	.	(>4d\	u-	(>4f\	u-	(>4dd\	u-
.	.	.	4c\)	.	4e\)	.	4cc\)	.
2G\	-ni-	.	(>4d\	-ni-	(>4f\	-ni-	(>4dd\	-ni-
.	.	.	4B\)	.	4d\)	.	4b\)	.
=34	=34	=34	=34	=34	=34	=34	=34	=34
4E\	-ge-	.	4c\	-ge-	4e\	-ge-	4cc\	-ge-
4D\	-ni-	.	4d\	-ni-	4f\	-ni-	4dd\	-ni-
2C/	-te	.	2e\	-te	2g\	-te	2ee\	-te
!LO:LB:g=original	!	!	!	!	!	!	!	!
=35	=35	=35	=35	=35	=35	=35	=35	=35
4F\	Je-	.	1A	Je-	1f	Je-	1cc	Je-
4G\	.	.	.	.	.	.	.	.
4A\	.	.	.	.	.	.	.	.
4B\	.	.	.	.	.	.	.	.
!	!	!	!LO:LB:g=original	!	!	!	!	!
=36	=36	=36	=36	=36	=36	=36	=36	=36
4c\	.	.	1G	-su	1e	-su	1cc	-su
4G\	.	.	.	.	.	.	.	.
(>4E\	-su	.	.	.	.	.	.	.
4C\)	.	.	.	.	.	.	.	.
=37	=37	=37	=37	=37	=37	=37	=37	=37
(>2F\	Chri-	.	1G	Chri-	1d	Chri-	(>2cc\	Chri-
2G\)	.	.	.	.	.	.	2b\)	.
=38	=38	=38	=38	=38	=38	=38	=38	=38
1C	-ste	.	1G	-ste	1e	-ste,	2cc\	-ste
.	.	.	.	.	.	.	2r	.
=39	=39	=39	=39	=39	=39	=39	=39	=39
2C/	Do-	.	2G/	Do-	2g\	Do-	2ee\	Do-
4E\	-mi-	.	4G/	-mi-	4e\	-mi-	4cc\	-mi-
4C/	-ne	.	4G/	-ne	4g\	-ne	4ee\	-ne
!	!	!	!	!	!LO:LB:g=original	!	!LO:LB:g=original	!
=40	=40	=40	=40	=40	=40	=40	=40	=40
2G\	De-	.	2G/	De-	(>4f\	De-	(>4dd\	De-
.	.	.	.	.	4e\)	.	4cc\)	.
2G\	-us	.	2G/	-us	2d\	-us	2b\	-us
=41	=41	=41	=41	=41	=41	=41	=41	=41
(>4c\	a-	.	2G/	a-	(>4e\	a-	(>4cc\	ag-
4G\)	.	.	.	.	4d\)	.	4b\)	.
(>4E\	-gnus	.	2G/	-gnus	(>4e\	-gnus	(>4cc\	-nus
4F\)	.	.	.	.	4f\)	.	4dd\)	.
=42	=42	=42	=42	=42	=42	=42	=42	=42
2G\	De-	.	2G/	De-	2e\	De-	2cc\	De-
2G\	-i	.	2G/	-i	2d\	-i	2b\	-i
!LO:LB:g=original	!	!	!	!	!	!	!	!
=43	=43	=43	=43	=43	=43	=43	=43	=43
2G\	fi-	.	(>4B\	fi-	(>4d\	fi-	(>4dd\	fi-
.	.	.	4c\)	.	4e\)	.	4cc\)	.
4G\	-li-	.	4d\	-li-	4f\	-li-	4b\	-li-
4GG/	-us	.	4B\	-us	4d\	-us	4dd\	-us
!	!	!	!	!	!LO:TX:a:i:t=V[olti]&colon; S[ubito]&colon;	!	!	!
!	!	!	!	!	!LO:TX:a:t=P:problem: adnotacja V:S: na pięciolinii za ostatnią kreską	!	!	!
!	!	!	!	!	!LO:PB:g=original	!	!	!
=44	=44	=44	=44	=44	=44	=44	=44	=44
4C/	pa-	.	(>4c\	fi-	4e\	fi-	[>1g	pa-
4BB/	.	.	4d\)	.	4f\	.	.	.
4C/	.	.	4e\	-li-	4g\	-li-	.	.
4F\	.	.	4d\	-us	4f\	-us	.	.
!	!	!	!LO:LB:g=original	!	!	!	!	!
=45	=45	=45	=45	=45	=45	=45	=45	=45
2G\	.	.	2c\	pa-	2e\	pa-	1g]	.
2GG/	.	.	2B\	.	2d\	.	.	.
=46	=46	=46	=46	=46	=46	=46	=46	=46
1C	-tris	.	1c	-tris	1e	-tris	1g	-tris.
!	!	!	!	!	!	!	!LO:TX:a:i:t=V[olti]&colon; S[ubito]&colon;	!
!	!	!	!	!	!	!	!LO:TX:a:t=P:problem: metrum i adnotacja V:S: na pięciolinii za ostatnią kreską	!
!	!	!	!	!	!	!	!LO:PB:g=original	!
==47	==47	==47	==47	==47	==47	==47	==47	==47
*M3/2	*	*	*M3/2	*	*M3/2	*	*M3/2	*
*	*	*	*	*	*	*	*rscale:1/2	*
!LO:TX:a:t=P:problem:metrum z kreską ułamkową	!	!	!LO:TX:a:t=P:problem: metrum z kreską ułamkową	!	!LO:TX:a:t=P:problem: metrum z kreską ułamkową	!	!LO:TX:a:t=P:problem: w źródle metrum 3/4	!
!	!	!	!	!	!	!	!LO:TX:a:t=P:problem: metrum z kreską ułamkową	!
2C/	qui	.	2e\	qui	2g\	qui	2cc\	Qui
2E\	tol-	.	2e\	tol-	2g\	tol-	2cc\	tol-
2G\	-lis	.	2d\	-lis	2f\	-lis	2b\	-lis
=48	=48	=48	=48	=48	=48	=48	=48	=48
!LO:SIC:l:v:s=pec-	!	!	!	!	!	!	!	!
2c\	pe-	.	2c\	pec-	2e\	pec-	2gg\	pec-
2E\	-ca-	.	2c\	-ca-	2e\	-ca-	2gg\	-ca-
2G\	-ta	.	2B\	-ta	2d\	-ta	2ff\	-ta
=49	=49	=49	=49	=49	=49	=49	=49	=49
!	!	!	!	!	!	!	!LO:SIC:v:s=2ee	!
(>2c\	mun-	.	(>2c\	mun-	(>2e\	mun-	(>2gg\	mun-
2A\	.	.	2B\	.	2f\	.	2dd\	.
2F#X\)	.	.	2A\)	.	2e\)	.	2cc\)	.
!LO:LB:g=original	!	!	!	!	!	!	!	!
=50	=50	=50	=50	=50	=50	=50	=50	=50
1G	-di	.	1.G	-di	1d	-di	1b	-di
2r	.	.	.	.	2r	.	2r	.
!	!	!	!	!	!LO:LB:g=original	!	!	!
=51	=51	=51	=51	=51	=51	=51	=51	=51
1G#X	mi-	.	1B	mi-	1f	mi-	1dd	mi-
2G#\	-se-	.	2B\	-se-	2f\	-se-	2dd\	-se-
=52	=52	=52	=52	=52	=52	=52	=52	=52
(>2A\	-re-	.	(<2A/	-re-	(>2e\	-re-	(>2cc\	-re-
2E\)	.	.	2G#X/)	.	2d\)	.	2b\)	.
2AA/	-re	.	2A/	re	2c\	-re	2a\	-re
!	!	!	!LO:LB:g=original	!	!	!	!LO:LB:g=original	!
=53	=53	=53	=53	=53	=53	=53	=53	=53
(>2D\	no-	.	(>2B\	no-	(>2f\	no-	(>2dd\	no-
1E)	.	.	2A\	.	1e)	.	2cc\	.
.	.	.	2G#X/)	.	.	.	2b\)	.
=54	=54	=54	=54	=54	=54	=54	=54	=54
1AA	-bis	.	1.A	-bis	1e	-bis	1cc	-bis
2r	.	.	.	.	2e\	qui	2r	.
=55	=55	=55	=55	=55	=55	=55	=55	=55
!	!	!LO:DY:b:rj:t=p.	!	!	!	!	!	!
!LO:TX:b:t=P:problem:oznaczenie dynamiczne na pięciolinii przed nutą	!	!	!	!	!	!	!	!
2G#X\	qui	p	2G#X/	qui	1e	se-	2b\	qui
2E\	se-	.	2E/	se-	.	.	2g#X\	se-
2G#\	-des	.	2G#/	-des	2e\	-des	2b\	-des
=56	=56	=56	=56	=56	=56	=56	=56	=56
2A\	ad	.	2A\	ad	2e\	ad	2cc\	ad
4A\	dex-	.	2A\	dex-	4e\	de-	4cc\	dex-
4A\	-te-	.	.	.	4e\	-xte-	4cc\	-te-
2A\	-ram	.	4A\	-te-	2e\	-ram	2cc\	-ram
.	.	.	4A\	-ram	.	.	.	.
!LO:LB:g=original	!	!	!	!	!	!	!	!
=57	=57	=57	=57	=57	=57	=57	=57	=57
2A\	pat-	.	2A\	pa-	2e\	pa-	2cc\	pa-
2G#X\	-ris	.	2G#X/	-tris	2e\	-tris	2b\	-tris
2r	.	.	2r	.	2r	.	2r	.
!	!	!	!	!	!LO:LB:g=original	!	!	!
=58	=58	=58	=58	=58	=58	=58	=58	=58
1A	mi-	.	1A	mi-	1f	mi-	1cc	mi-
2Gn\	-se-	.	2Gn/	-se-	2e\	-se-	2b\	-se-
!	!	!	!	!	!	!	!LO:LB:g=original	!
=59	=59	=59	=59	=59	=59	=59	=59	=59
1F	-re-	.	1Fn	-re-	1d	-re-	1a	-re-
2E\	-re	.	2E/	-re	2c\	-re	2g\	-re
!	!	!	!LO:LB:g=original	!	!	!	!	!
=60	=60	=60	=60	=60	=60	=60	=60	=60
2F\	no-	.	2F/	no-	(>2d\	no-	(>2a\	no-
1G	.	.	1G	.	2e\	.	2cc\	.
.	.	.	.	.	2d\)	.	2b\)	.
=61	=61	=61	=61	=61	=61	=61	=61	=61
!LO:SIC:v:s=1C	!	!	!	!	!	!	!	!
1G	-bis	.	1G	-bis	1.e	-bis	1cc	-bis
2r	.	.	2r	.	.	.	2r	.
=62	=62	=62	=62	=62	=62	=62	=62	=62
1A	mi-	.	1A	mi-	1f	mi-	1cc	mi-
2G\	-se-	.	2G/	-se-	2e\	-se-	2b\	-se-
=63	=63	=63	=63	=63	=63	=63	=63	=63
1F	-re-	.	1F	-re-	1d	-re-	1a	-re-
2E\	-re	.	2E/	-re	2c\	-re	2g\	-re
=64	=64	=64	=64	=64	=64	=64	=64	=64
2F\	no-	.	2F/	no-	(>2d\	no-	(>2a\	no-
1G	.	.	1G	.	2e\	.	2cc\	.
.	.	.	.	.	2d\)	.	2b\)	.
=65	=65	=65	=65	=65	=65	=65	=65	=65
!LO:SIC:v:s=1.C	!	!	!	!	!	!	!	!
1.G	-bis.	.	1.G	-bis.	1.e	-bis	1.cc	-bis
!	!	!	!LO:TX:a:i:t=Seque Quoniam V[olti]&colon; S[ubito]&colon;	!	!	!	!	!
!	!	!	!LO:TX:a:t=P:problem: adnotacje na pięciolinii za ostatnią kreską	!	!	!	!	!
!LO:LB:g=original	!	!	!LO:PB:g=original	!	!LO:LB:g=original	!	!LO:LB:g=original	!
==66	==66	==66	==66	==66	==66	==66	==66	==66
*M4/4	*	*	*M4/4	*	*M4/4	*	*M4/4	*
*met(C.)	*	*	*met(C.)	*	*met(C.)	*	*met(C.)	*
*	*	*	*	*	*	*	*rscale:1	*
4C/	Quo-	.	2.G/	Quo-	2.e\	Quo-	2.cc\	Quo-
4D/	-ni-	.	.	.	.	.	.	.
4E\	-am	.	.	.	.	.	.	.
4F\	tu	.	4G/	-ni-	4e\	-ni-	4cc\	-ni-
=67	=67	=67	=67	=67	=67	=67	=67	=67
2.G\	so-	.	2.G/	-am	2.d\	-am	2.b\	-am
4G\	-lus	.	4G/	tu	4e\	tu	4cc\	tu
=68	=68	=68	=68	=68	=68	=68	=68	=68
(>4G\	tu	.	2G/	so-	(>4f\	so-	(>4dd\	so-
4A\)	.	.	.	.	4e\)	.	4cc\)	.
4B\	so-	.	2G/	-lus	(>4f\	-lus	(>4dd\	-lus
4G\	-lus	.	.	.	4d\)	.	4b\)	.
=69	=69	=69	=69	=69	=69	=69	=69	=69
4c\	san-	.	4G/	san-	(>4e\	san-	(>4cc\	san-
4G\	.	.	4B/	.	4f\)	.	4dd\)	.
4E\	-ctus	.	4c\	-ctus	4g\	-ctus	4ee\	-ctus
4C/	tu	.	4c\	tu	4g\	tu	4ee\	tu
=70	=70	=70	=70	=70	=70	=70	=70	=70
4C/	so-	.	4G/	so-	4g\	so-	4ee\	so-
4C/	-lus	.	4G/	-lus	(>8a\L	-lus	(>8ff\L	-lus
.	.	.	.	.	8g\J)	.	8ee\J)	.
4F\	Do-	.	4A\	Do-	4f\	Do-	4dd\	Do-
4F#X\	-mi-	.	4A\	-mi-	4e\	-mi-	4cc\	-mi-
!LO:TX:a:i:t=V[olti]&colon; S[ubito]&colon;	!	!	!	!	!	!	!	!
!LO:TX:a:t=P:problem: adnotacja na pięciolinii za ostatnią kreską	!	!	!	!	!	!	!	!
!LO:PB:g=original	!	!	!	!	!LO:LB:g=original	!	!LO:LB:g=original	!
=71	=71	=71	=71	=71	=71	=71	=71	=71
2G\	-nus	.	2G/	-nus	2d\	-nus	2b\	-nus
4r	.	.	4r	.	4r	.	4r	.
4G\	tu	.	4d\	tu	4f\	tu	4g\	tu
=72	=72	=72	=72	=72	=72	=72	=72	=72
2G\	so-	.	2d\	so-	2f\	so-	2g\	so-
4G\	-lus	.	4c\	-lus	4e\	-lus	4g\	-lus
4G\	al-	.	4B\	al-	4d\	al-	4g\	al-
=73	=73	=73	=73	=73	=73	=73	=73	=73
!LO:SIC:l:v:s=-tis-	!	!	!	!	!	!	!	!
4G\	-ti-	.	4c\	-tis-	4e\	-tis-	4g\	-tis-
4G\	-si-	.	4d\	-si-	4f\	-si-	4g\	-si-
2G\	-mus	.	2e\	-mus	2g\	-mus	2g\	-mus
!	!	!	!LO:LB:g=original	!	!	!	!	!
=74	=74	=74	=74	=74	=74	=74	=74	=74
(>4F\	Je-	.	1c	Je-	1a	Je-	1ff	Je-
4G\	.	.	.	.	.	.	.	.
4A\	.	.	.	.	.	.	.	.
4B\	.	.	.	.	.	.	.	.
=75	=75	=75	=75	=75	=75	=75	=75	=75
4c\	.	.	1c	-su	1g	-su	1ee	-su
4G\)	.	.	.	.	.	.	.	.
(>4E\	-su	.	.	.	.	.	.	.
4C/)	.	.	.	.	.	.	.	.
=76	=76	=76	=76	=76	=76	=76	=76	=76
(>4BB/	Je-	.	1B	Je-	1f	Je-	1dd	Je-
4GG/	.	.	.	.	.	.	.	.
4AA/	.	.	.	.	.	.	.	.
4BB/	.	.	.	.	.	.	.	.
=77	=77	=77	=77	=77	=77	=77	=77	=77
4C\	.	.	1G	-su	1e	-su	1cc	-su
4E\)	.	.	.	.	.	.	.	.
(>4G\	-su	.	.	.	.	.	.	.
4c\)	.	.	.	.	.	.	.	.
!LO:LB:g=original	!	!	!	!	!	!	!	!
=78	=78	=78	=78	=78	=78	=78	=78	=78
2G\	Je-	.	2G/	Je-	2d\	Je-	2b\	Je-
2E\	su	.	2G/	-su	2e\	-su	2cc\	-su
!	!	!	!	!	!	!	!LO:LB:g=original	!
=79	=79	=79	=79	=79	=79	=79	=79	=79
1G	Chri-	.	1G	Chri-	(>2e\	Chri-	(>2cc\	Chri-
.	.	.	.	.	2d\)	.	2b\)	.
!	!	!	!	!	!LO:LB:g=original	!	!	!
=80	=80	=80	=80	=80	=80	=80	=80	=80
2C/	-ste	.	2G/	-ste	2e\	-ste	2cc\	-ste
2GG/	cum	.	2G/	cum	2d\	cum	2b\	cum
=81	=81	=81	=81	=81	=81	=81	=81	=81
(<4C/	san-	.	2G/	san-	2e\	sanc-	2cc\	san-
4E/)	.	.	.	.	.	.	.	.
(>4G\	-cto	.	2G/	-cto	2e\	-to	2cc\	-cto
4c\)	.	.	.	.	.	.	.	.
=82	=82	=82	=82	=82	=82	=82	=82	=82
4G\	spi-	.	4B\	spi-	4g\	spi-	4dd\	spi-
4D\	-ri-	.	4B\	-ri-	4g\	-ri-	4dd\	-ri-
4BB/	-tu	.	4B\	-tu	4g\	-tu	4dd\	-tu
4GG/	in	.	4B\	in	4g\	in	4dd\	in
=83	=83	=83	=83	=83	=83	=83	=83	=83
4.C/	glo-	.	4c\	glo-	4.g\	glo-	4.ee\	glo-
.	.	.	4B\	-ri-	.	.	.	.
8C/	-ri-	.	.	.	8f\	-ri-	8dd\	-ri-
2C/	-a	.	2G/	-a	2e\	-a	2cc\	-a
!	!	!	!LO:LB:g=original	!	!	!	!	!
=84	=84	=84	=84	=84	=84	=84	=84	=84
2G\	De-	.	2B\	De-	2f\	De-	2dd\	De-
2C/	-i	.	2G/	-i	2e\	-i	2cc\	-i
!LO:LB:g=original	!	!	!	!	!	!	!LO:LB:g=original	!
=85	=85	=85	=85	=85	=85	=85	=85	=85
2GG/	pa-	.	2G/	pat-	2d\	pa-	2b\	pa-
2C/	-tris	.	2G/	-ris	2e\	-tris	2cc\	-tris
!	!	!	!	!	!LO:LB:g=original	!	!	!
=86	=86	=86	=86	=86	=86	=86	=86	=86
1G	a-	.	1G	a-	1d	a-	1b	a-
=87	=87	=87	=87	=87	=87	=87	=87	=87
1C	-men	.	1G	-men	1e	-men	1cc	-men
=88	=88	=88	=88	=88	=88	=88	=88	=88
4F\	a-	.	1A	a-	1f	a-	1cc	a-
4G\	.	.	.	.	.	.	.	.
4A\	.	.	.	.	.	.	.	.
4B\	.	.	.	.	.	.	.	.
=89	=89	=89	=89	=89	=89	=89	=89	=89
4c\	.	.	1G	-men	1e	-men	1cc	-men
4G\	.	.	.	.	.	.	.	.
(>4E\	-men	.	.	.	.	.	.	.
4C\)	.	.	.	.	.	.	.	.
=90	=90	=90	=90	=90	=90	=90	=90	=90
4F\	a-	.	1G	a-	1d	a-	1b	a-
4D\	.	.	.	.	.	.	.	.
2G\	.	.	.	.	.	.	.	.
=91	=91	=91	=91	=91	=91	=91	=91	=91
1C	-men.	.	1G	-men.	1e	-men.	1cc	-men.
==	==	==	==	==	==	==	==	==
*-	*-	*-	*-	*-	*-	*-	*-	*-
!!!system-decoration: [(s1,s2,s3,s4)]
!!!RDF**kern: > = above
!!!RDF**kern: < = below
!!!EED: Mateusz Mrugas
!!!EST: 2021-02-04
!!!ENC: Krzysztof Stępień
!!!END: 2021-01-28
